Newaita-dark/actions/16/tool-measure.svg

<svg height="16" viewBox="0 0 16 16" width="16" xmlns="http://www.w3.org/2000/svg"><g fill="#e0e0e0"><path d="m10.585938 4.753906c0 .183594-.148438.332032-.332032.332032h-1.324218c-.183594 0-.328126-.148438-.328126-.332032 0-.179687.144532-.328125.328126-.328125h1.324218c.183594 0 .332032.148438.332032.328125zm0 0"/><path d="m8.601562 2.109375c-.367187 0-.664062.296875-.664062.660156v10.585938c0 .367187.296875.660156.664062.660156h4.628907c.367187 0 .660156-.292969.660156-.660156v-10.585938c0-.363281-.292969-.660156-.660156-.660156zm.992188 1.324219h2.644531c.183594 0 .332031.148437.332031.328125v8.601562c0 .183594-.148437.332031-.332031.332031h-2.644531c-.183594 0-.332031-.148437-.332031-.332031v-8.601562c0-.179688.148437-.328125.332031-.328125zm0 0"/><path d="m10.585938 6.410156c0 .183594-.148438.328125-.332032.328125h-1.324218c-.183594 0-.328126-.144531-.328126-.328125s.144532-.332031.328126-.332031h1.324218c.183594 0 .332032.148437.332032.332031zm0 0"/><path d="m10.585938 8.0625c0 .183594-.148438.332031-.332032.332031h-1.324218c-.183594 0-.328126-.148437-.328126-.332031s.144532-.328125.328126-.328125h1.324218c.183594 0 .332032.144531.332032.328125zm0 0"/><path d="m10.585938 9.71875c0 .179688-.148438.328125-.332032.328125h-1.324218c-.183594 0-.328126-.148437-.328126-.328125 0-.183594.144532-.332031.328126-.332031h1.324218c.183594 0 .332032.148437.332032.332031zm0 0"/><path d="m10.585938 11.371094c0 .183594-.148438.332031-.332032.332031h-1.324218c-.183594 0-.328126-.148437-.328126-.332031s.144532-.332032.328126-.332032h1.324218c.183594 0 .332032.148438.332032.332032zm0 0"/><g stroke="#000" stroke-width=".264583" transform="matrix(.031253 0 0 .031253 0 6.719392)"><path d="m63.493937-62.889526 74.117922-84.616919 73.992934 84.616919zm0 0"/><path d="m63.493937 148.840255 74.117922 84.616919 73.992934-84.616919zm0 0"/></g></g></svg>

<svg xmlns="http://www.w3.org/2000/svg" xmlns:xlink="http://www.w3.org/1999/xlink" width="16px" height="16px" viewBox="0 0 16 16" version="1.1">
<g id="surface1">
     <defs>
  <style id="current-color-scheme" type="text/css">
   .ColorScheme-Text { color:#eeeeee; } .ColorScheme-Highlight { color:#424242; }
  </style>
 </defs>
<path style="fill:currentColor" class="ColorScheme-Text" d="M 10.585938 4.753906 C 10.585938 4.9375 10.4375 5.085938 10.253906 5.085938 L 8.929688 5.085938 C 8.746094 5.085938 8.601562 4.9375 8.601562 4.753906 C 8.601562 4.574219 8.746094 4.425781 8.929688 4.425781 L 10.253906 4.425781 C 10.4375 4.425781 10.585938 4.574219 10.585938 4.753906 Z M 10.585938 4.753906 "/>
     <defs>
  <style id="current-color-scheme" type="text/css">
   .ColorScheme-Text { color:#eeeeee; } .ColorScheme-Highlight { color:#424242; }
  </style>
 </defs>
<path style="fill:currentColor" class="ColorScheme-Text" d="M 8.601562 2.109375 C 8.234375 2.109375 7.9375 2.40625 7.9375 2.769531 L 7.9375 13.355469 C 7.9375 13.722656 8.234375 14.015625 8.601562 14.015625 L 13.230469 14.015625 C 13.597656 14.015625 13.890625 13.722656 13.890625 13.355469 L 13.890625 2.769531 C 13.890625 2.40625 13.597656 2.109375 13.230469 2.109375 Z M 9.59375 3.433594 L 12.238281 3.433594 C 12.421875 3.433594 12.570312 3.582031 12.570312 3.761719 L 12.570312 12.363281 C 12.570312 12.546875 12.421875 12.695312 12.238281 12.695312 L 9.59375 12.695312 C 9.410156 12.695312 9.261719 12.546875 9.261719 12.363281 L 9.261719 3.761719 C 9.261719 3.582031 9.410156 3.433594 9.59375 3.433594 Z M 9.59375 3.433594 "/>
     <defs>
  <style id="current-color-scheme" type="text/css">
   .ColorScheme-Text { color:#eeeeee; } .ColorScheme-Highlight { color:#424242; }
  </style>
 </defs>
<path style="fill:currentColor" class="ColorScheme-Text" d="M 10.585938 6.410156 C 10.585938 6.59375 10.4375 6.738281 10.253906 6.738281 L 8.929688 6.738281 C 8.746094 6.738281 8.601562 6.59375 8.601562 6.410156 C 8.601562 6.226562 8.746094 6.078125 8.929688 6.078125 L 10.253906 6.078125 C 10.4375 6.078125 10.585938 6.226562 10.585938 6.410156 Z M 10.585938 6.410156 "/>
     <defs>
  <style id="current-color-scheme" type="text/css">
   .ColorScheme-Text { color:#eeeeee; } .ColorScheme-Highlight { color:#424242; }
  </style>
 </defs>
<path style="fill:currentColor" class="ColorScheme-Text" d="M 10.585938 8.0625 C 10.585938 8.246094 10.4375 8.394531 10.253906 8.394531 L 8.929688 8.394531 C 8.746094 8.394531 8.601562 8.246094 8.601562 8.0625 C 8.601562 7.878906 8.746094 7.734375 8.929688 7.734375 L 10.253906 7.734375 C 10.4375 7.734375 10.585938 7.878906 10.585938 8.0625 Z M 10.585938 8.0625 "/>
     <defs>
  <style id="current-color-scheme" type="text/css">
   .ColorScheme-Text { color:#eeeeee; } .ColorScheme-Highlight { color:#424242; }
  </style>
 </defs>
<path style="fill:currentColor" class="ColorScheme-Text" d="M 10.585938 9.71875 C 10.585938 9.898438 10.4375 10.046875 10.253906 10.046875 L 8.929688 10.046875 C 8.746094 10.046875 8.601562 9.898438 8.601562 9.71875 C 8.601562 9.535156 8.746094 9.386719 8.929688 9.386719 L 10.253906 9.386719 C 10.4375 9.386719 10.585938 9.535156 10.585938 9.71875 Z M 10.585938 9.71875 "/>
     <defs>
  <style id="current-color-scheme" type="text/css">
   .ColorScheme-Text { color:#eeeeee; } .ColorScheme-Highlight { color:#424242; }
  </style>
 </defs>
<path style="fill:currentColor" class="ColorScheme-Text" d="M 10.585938 11.371094 C 10.585938 11.554688 10.4375 11.703125 10.253906 11.703125 L 8.929688 11.703125 C 8.746094 11.703125 8.601562 11.554688 8.601562 11.371094 C 8.601562 11.1875 8.746094 11.039062 8.929688 11.039062 L 10.253906 11.039062 C 10.4375 11.039062 10.585938 11.1875 10.585938 11.371094 Z M 10.585938 11.371094 "/>
<path style="fill-rule:nonzero;fill:rgb(87.843138%,87.843138%,87.843138%);fill-opacity:1;stroke-width:0.264583;stroke-linecap:butt;stroke-linejoin:miter;stroke:rgb(0%,0%,0%);stroke-opacity:1;stroke-miterlimit:4;" d="M 63.493907 -62.889503 L 137.611794 -147.506383 L 211.604694 -62.889503 Z M 63.493907 -62.889503 " transform="matrix(0.031253,0,0,0.031253,0,6.719392)"/>
<path style="fill-rule:nonzero;fill:rgb(87.843138%,87.843138%,87.843138%);fill-opacity:1;stroke-width:0.264583;stroke-linecap:butt;stroke-linejoin:miter;stroke:rgb(0%,0%,0%);stroke-opacity:1;stroke-miterlimit:4;" d="M 63.493907 148.840178 L 137.611794 233.457058 L 211.604694 148.840178 Z M 63.493907 148.840178 " transform="matrix(0.031253,0,0,0.031253,0,6.719392)"/>
</g>
</svg>
